X: 1
T:Funen March
M:4/4
O:Denmark
Z:Transcribed from a recording by Andy Hornby
B:Rasmus Storm's Notebook
K:D
FG|\
A2A2 A2Bc|d6 A2|\
B2d2 A2d2|G2AG F2A2|Bdcd Adcd|A2(3GAG F2d2|
c2cd e2ef|g6 fe|f2ed c3-d|d6 :: de |\
f2f2 f2ed|e2f^g a2Bc|
d2d2 d2cB|A2f2 e2dc|\
B2B2 B2cd|A2A2 G2FA|B2B2 B2cd|A2A=G F2A2|\
B2d2 A2d2|G2AG F2A2|Bdcd Adcd|A2GA F2d2|\
c2cd e2ef|g6 fe|f2ed c3-d|d6 :|
